src/assets/icons/default/IconTask.svg

<svg width="20" height="20" viewBox="0 0 24 24" fill="none" xmlns="http://www.w3.org/2000/svg">
<path d="M8.4 3H8C5.79086 3 4 4.79086 4 7V18C4 20.2091 5.79086 22 8 22H16C18.2091 22 20 20.2091 20 18V7C20 4.79086 18.2091 3 16 3V3" stroke="currentColor" stroke-width="2"/>
<rect x="8" y="1" width="8" height="4" rx="2" stroke="currentColor" stroke-width="2"/>
<path d="M11.0554 7.80005H13.4234L13.0234 15.288H11.4394L11.0554 7.80005ZM12.2394 19.1121C11.866 19.1121 11.5567 18.9947 11.3114 18.76C11.066 18.5147 10.9434 18.2161 10.9434 17.864C10.9434 17.512 11.066 17.2187 11.3114 16.984C11.5567 16.7494 11.866 16.632 12.2394 16.632C12.602 16.632 12.9007 16.7494 13.1354 16.984C13.3807 17.2187 13.5034 17.512 13.5034 17.864C13.5034 18.2161 13.3807 18.5147 13.1354 18.76C12.9007 18.9947 12.602 19.1121 12.2394 19.1121Z" fill="currentColor"/>
</svg>

<svg xmlns="http://www.w3.org/2000/svg" width="20" height="20" fill="none" viewBox="0 0 24 24">
  <path stroke="currentcolor" stroke-width="2" d="M8.4 3H8a4 4 0 0 0-4 4v11a4 4 0 0 0 4 4h8a4 4 0 0 0 4-4V7a4 4 0 0 0-4-4"/>
  <rect width="8" height="4" x="8" y="1" stroke="currentcolor" stroke-width="2" rx="2"/>
  <path fill="currentcolor" d="M11.06 7.8h2.36l-.4 7.49h-1.58zm1.18 11.31q-.55 0-.93-.35a1.2 1.2 0 0 1-.37-.9q0-.52.37-.88.38-.35.93-.35.54 0 .9.35.36.36.36.88 0 .53-.36.9-.36.35-.9.35"/>
</svg>
